Newaita-dark/apps/16/devhelp.svg

<svg height="16" viewBox="0 0 16 16" width="16" xmlns="http://www.w3.org/2000/svg" xmlns:xlink="http://www.w3.org/1999/xlink"><linearGradient id="a" gradientUnits="userSpaceOnUse" x1="7.93826" x2="7.93826" y1="14.0169685" y2="14.67849050002"><stop offset="0" stop-opacity=".27451"/><stop offset="1" stop-opacity="0"/></linearGradient><linearGradient id="b"><stop offset="0" stop-opacity=".313726"/><stop offset=".222222" stop-opacity=".27451"/><stop offset="1" stop-opacity="0"/></linearGradient><radialGradient id="c" cx="450.908936" cy="189.579361" gradientTransform="matrix(.00000009 -.0390662 -.0703192 -.00000005 25.073043 31.797666)" gradientUnits="userSpaceOnUse" r="21.166656" xlink:href="#b"/><radialGradient id="d" cx="450.908936" cy="189.579361" gradientTransform="matrix(-.00000009 .0390662 .0703192 .00000005 -9.196524 -3.76374)" gradientUnits="userSpaceOnUse" r="21.166656" xlink:href="#b"/><radialGradient id="e" cx="450.908936" cy="189.579361" gradientTransform="matrix(-.00000009 -.0390662 .0703192 -.00000005 -9.196524 31.797666)" gradientUnits="userSpaceOnUse" r="21.166656" xlink:href="#b"/><radialGradient id="f" cx="450.908936" cy="189.579361" gradientTransform="matrix(.00000009 .0390662 -.0703192 .00000005 25.073042 -3.76374)" gradientUnits="userSpaceOnUse" r="21.166656" xlink:href="#b"/><linearGradient id="g" gradientTransform="matrix(.0376748 0 0 .108706 -2.927007 16.820674)" gradientUnits="userSpaceOnUse" x1="306.916656" x2="305.954559" y1="-25.791676" y2="-141.414581"><stop offset="0" stop-color="#f44336"/><stop offset="1" stop-color="#ef5350"/></linearGradient><linearGradient id="h"><stop offset="0" stop-color="#424242"/><stop offset="1" stop-color="#616161"/></linearGradient><linearGradient id="i" gradientTransform="matrix(4.556143 0 0 13.146184 -353.972656 2034.180176)" gradientUnits="userSpaceOnUse" x1="165.484848" x2="165.484848" xlink:href="#h" y1="-25.791672" y2="-141.414581"/><linearGradient id="j" gradientUnits="userSpaceOnUse" x1="275.166321" x2="275.166321" xlink:href="#h" y1="233.49969318561" y2="-168.66647475188"/><linearGradient id="k" gradientUnits="userSpaceOnUse" x1="3.30760950003" x2="3.30760950003" xlink:href="#h" y1="5.25181134375" y2="4.59028956251"/><linearGradient id="l" gradientUnits="userSpaceOnUse" x1="3.30760950003" x2="3.30760950003" xlink:href="#h" y1="10.70936434375" y2="10.04784256251"/><path d="m3.96875 14.015625h7.9375v.664063h-7.9375zm0 0" fill="url(#a)"/><path d="m11.90625 14.015625h1.324219v-.660156h-1.324219zm0 0" fill="url(#c)"/><path d="m3.96875 14.015625h-1.324219v.664063h1.324219zm0 0" fill="url(#d)"/><path d="m3.96875 14.015625h-1.324219v-.660156h1.324219zm0 0" fill="url(#e)"/><path d="m11.90625 14.015625h1.324219v.664063h-1.324219zm0 0" fill="url(#f)"/><path d="m3.308594 1.449219h9.261718c.363282 0 .660157.296875.660157.660156v11.246094c0 .367187-.296875.660156-.660157.660156h-9.261718c-.367188 0-.664063-.292969-.664063-.660156v-11.246094c0-.363281.296875-.660156.664063-.660156zm0 0" fill="url(#g)"/><path d="m400.119292 175.258863c-44.405211 0-80.307296 35.42969-80.307296 79.8349v1360.027676c0 44.405211 35.902085 79.8349 80.307296 79.8349h119.988548v-1519.697476zm0 0" fill="url(#i)" stroke="#212121" stroke-linecap="round" stroke-width="11.338583" transform="scale(.00826902)"/><path d="m3.308594 14.015625c-.367188 0-.664063-.292969-.664063-.660156v-.082031c0 .367187.296875.660156.664063.660156h9.261718c.363282 0 .660157-.292969.660157-.660156v.082031c0 .367187-.296875.660156-.660157.660156zm0 0" fill-opacity=".196078"/><path d="m3.308594 1.449219c-.367188 0-.664063.292969-.664063.660156v.082031c0-.367187.296875-.660156.664063-.660156h9.261718c.363282 0 .660157.292969.660157.660156v-.082031c0-.367187-.296875-.660156-.660157-.660156zm0 0" fill="#e6e6e6" fill-opacity=".937239"/><path d="m3.308594 1.402344c-.394532 0-.710938.316406-.710938.707031v11.246094c0 .390625.316406.707031.710938.707031h9.261718c.390626 0 .707032-.316406.707032-.707031v-11.246094c0-.390625-.316406-.707031-.707032-.707031zm0 .09375h9.261718c.339844 0 .613282.273437.613282.613281v11.246094c0 .339843-.273438.613281-.613282.613281h-9.261718c-.34375 0-.617188-.273438-.617188-.613281v-11.246094c0-.339844.273438-.613281.617188-.613281zm0 0" fill="#212121"/><path d="m6.285156 5.417969v4.960937h3.636719c.367187 0 .664063-.296875.664063-.660156v-3.640625c0-.367187-.296876-.660156-.664063-.660156zm.828125.824219h2.3125c.183594 0 .332031.148437.332031.332031v2.609375c0 .183594-.148437.332031-.332031.332031h-2.3125zm0 0" fill="#eee" fill-opacity=".995816"/><path d="m6.285156 5.417969v.125h3.636719c.367187 0 .664063.292969.664063.660156v-.125c0-.367187-.296876-.660156-.664063-.660156zm3.472656 3.765625c0 .183594-.148437.332031-.332031.332031h-2.3125v.125h2.3125c.183594 0 .332031-.148437.332031-.332031zm0 0" fill="#fff" fill-opacity=".916129"/><path d="m7.113281 6.238281v.265625h2.3125c.183594 0 .332031.144532.332031.328125v-.261719c0-.183593-.148437-.332031-.332031-.332031zm3.472657 3.472657c0 .367187-.296876.664062-.664063.664062h-3.636719v.261719h3.636719c.367187 0 .664063-.292969.664063-.660157zm0 0" fill-opacity=".235294"/><path d="m760.084936 655.213055v599.94274h439.800544c44.40521 0 80.307296-35.902085 80.307296-79.8349v-440.27294c0-44.40521-35.902086-79.8349-80.307296-79.8349zm100.147922 99.675526h279.658348c22.202605 0 40.153648 17.951043 40.153648 40.153648v315.560434c0 22.202605-17.951043 40.153647-40.153648 40.153647h-279.658348zm0 0" fill="none" stroke="#212121" stroke-linecap="square" stroke-linejoin="bevel" stroke-width="11.338583" transform="scale(.00826902)"/><path d="m148.110856-147.506445v359.840637h243.476749c5.874439 0 10.623986-4.749547 10.623986-10.623986v-338.592666c0-5.874439-4.749547-10.623985-10.623986-10.623985zm0 0" style="fill:none;stroke-width:8;stroke-linecap:round;stroke-linejoin:round;stroke-dasharray:16 16;stroke-dashoffset:7.200001;stroke:url(#j)" transform="matrix(.031253 0 0 .031253 0 6.719392)"/><path d="m2.644531 4.589844h1.65625v.660156h-1.65625zm0 0" fill="url(#k)"/><path d="m2.644531 5.25v.25h1.65625v-.25zm0 0" fill-opacity=".235294"/><path d="m2.644531 4.589844v.164062h1.65625v-.164062zm0 0" fill="#fff" fill-opacity=".392157"/><path d="m84.61692-20.514265h52.994939v21.122983h-52.994939zm0 0" fill="none" stroke="#212121" stroke-linecap="round" stroke-linejoin="round" stroke-width="3" transform="matrix(.031253 0 0 .031253 0 5.230976)"/><path d="m2.644531 10.046875h1.65625v.664063h-1.65625zm0 0" fill="url(#l)"/><path d="m2.644531 10.710938v.246093h1.65625v-.246093zm0 0" fill-opacity=".235294"/><path d="m2.644531 10.046875v.167969h1.65625v-.167969zm0 0" fill="#fff" fill-opacity=".392157"/><path d="m84.61692-20.530958h52.994939v21.247971h-52.994939zm0 0" fill="none" stroke="#212121" stroke-linecap="round" stroke-linejoin="round" stroke-width="3" transform="matrix(.031253 0 0 .031253 0 10.688529)"/></svg>

<?xml version="1.0" encoding="UTF-8"?>
<svg xmlns="http://www.w3.org/2000/svg" xmlns:xlink="http://www.w3.org/1999/xlink" width="16px" height="16px" viewBox="0 0 16 16" version="1.1">
<defs>
<linearGradient id="linear0" gradientUnits="userSpaceOnUse" x1="254" y1="233.5" x2="254" y2="254.666672" gradientTransform="matrix(0.031253,0,0,0.031253,-0.00000190753,6.719393)">
<stop offset="0" style="stop-color:rgb(0%,0%,0%);stop-opacity:0.27451;"/>
<stop offset="1" style="stop-color:rgb(0%,0%,0%);stop-opacity:0;"/>
</linearGradient>
<radialGradient id="radial0" gradientUnits="userSpaceOnUse" cx="450.908936" cy="189.579361" fx="450.908936" fy="189.579361" r="21.166656" gradientTransform="matrix(0.0000000870852,-0.0390662,-0.0703192,-0.0000000507693,25.073043,31.797666)">
<stop offset="0" style="stop-color:rgb(0%,0%,0%);stop-opacity:0.313726;"/>
<stop offset="0.222222" style="stop-color:rgb(0%,0%,0%);stop-opacity:0.27451;"/>
<stop offset="1" style="stop-color:rgb(0%,0%,0%);stop-opacity:0;"/>
</radialGradient>
<radialGradient id="radial1" gradientUnits="userSpaceOnUse" cx="450.908936" cy="189.579361" fx="450.908936" fy="189.579361" r="21.166656" gradientTransform="matrix(-0.0000000870852,0.0390662,0.0703192,0.0000000507693,-9.196524,-3.76374)">
<stop offset="0" style="stop-color:rgb(0%,0%,0%);stop-opacity:0.313726;"/>
<stop offset="0.222222" style="stop-color:rgb(0%,0%,0%);stop-opacity:0.27451;"/>
<stop offset="1" style="stop-color:rgb(0%,0%,0%);stop-opacity:0;"/>
</radialGradient>
<radialGradient id="radial2" gradientUnits="userSpaceOnUse" cx="450.908936" cy="189.579361" fx="450.908936" fy="189.579361" r="21.166656" gradientTransform="matrix(-0.0000000870852,-0.0390662,0.0703192,-0.0000000507693,-9.196524,31.797666)">
<stop offset="0" style="stop-color:rgb(0%,0%,0%);stop-opacity:0.313726;"/>
<stop offset="0.222222" style="stop-color:rgb(0%,0%,0%);stop-opacity:0.27451;"/>
<stop offset="1" style="stop-color:rgb(0%,0%,0%);stop-opacity:0;"/>
</radialGradient>
<radialGradient id="radial3" gradientUnits="userSpaceOnUse" cx="450.908936" cy="189.579361" fx="450.908936" fy="189.579361" r="21.166656" gradientTransform="matrix(0.0000000870852,0.0390662,-0.0703192,0.0000000507693,25.073042,-3.76374)">
<stop offset="0" style="stop-color:rgb(0%,0%,0%);stop-opacity:0.313726;"/>
<stop offset="0.222222" style="stop-color:rgb(0%,0%,0%);stop-opacity:0.27451;"/>
<stop offset="1" style="stop-color:rgb(0%,0%,0%);stop-opacity:0;"/>
</radialGradient>
<linearGradient id="linear1" gradientUnits="userSpaceOnUse" x1="306.916656" y1="-25.791676" x2="305.954559" y2="-141.414581" gradientTransform="matrix(0.0376748,0,0,0.108706,-2.927007,16.820674)">
<stop offset="0" style="stop-color:rgb(95.686275%,26.274511%,21.176471%);stop-opacity:1;"/>
<stop offset="1" style="stop-color:rgb(93.725491%,32.549021%,31.37255%);stop-opacity:1;"/>
</linearGradient>
<linearGradient id="linear2" gradientUnits="userSpaceOnUse" x1="165.484848" y1="-25.791672" x2="165.484848" y2="-141.414581" gradientTransform="matrix(4.556143,0,0,13.146184,-353.972656,2034.180176)">
<stop offset="0" style="stop-color:rgb(25.882354%,25.882354%,25.882354%);stop-opacity:1;"/>
<stop offset="1" style="stop-color:rgb(38.039216%,38.039216%,38.039216%);stop-opacity:1;"/>
</linearGradient>
<linearGradient id="linear3" gradientUnits="userSpaceOnUse" x1="1040" y1="1695.118164" x2="1040" y2="175.118134" gradientTransform="matrix(0.264583,0,0,0.264583,0.000000666667,-214.999756)">
<stop offset="0" style="stop-color:rgb(25.882354%,25.882354%,25.882354%);stop-opacity:1;"/>
<stop offset="1" style="stop-color:rgb(38.039216%,38.039216%,38.039216%);stop-opacity:1;"/>
</linearGradient>
<linearGradient id="linear4" gradientUnits="userSpaceOnUse" x1="105.833344" y1="0.666667" x2="105.833344" y2="-20.499998" gradientTransform="matrix(0.031253,0,0,0.031253,-0.0000000104177,5.230976)">
<stop offset="0" style="stop-color:rgb(25.882354%,25.882354%,25.882354%);stop-opacity:1;"/>
<stop offset="1" style="stop-color:rgb(38.039216%,38.039216%,38.039216%);stop-opacity:1;"/>
</linearGradient>
<linearGradient id="linear5" gradientUnits="userSpaceOnUse" x1="105.833344" y1="0.666667" x2="105.833344" y2="-20.499998" gradientTransform="matrix(0.031253,0,0,0.031253,-0.0000000104177,10.688529)">
<stop offset="0" style="stop-color:rgb(25.882354%,25.882354%,25.882354%);stop-opacity:1;"/>
<stop offset="1" style="stop-color:rgb(38.039216%,38.039216%,38.039216%);stop-opacity:1;"/>
</linearGradient>
</defs>
<g id="surface1">
<path style=" stroke:none;fill-rule:nonzero;fill:url(#linear0);" d="M 3.96875 14.015625 L 11.90625 14.015625 L 11.90625 14.679688 L 3.96875 14.679688 Z M 3.96875 14.015625 "/>
<path style=" stroke:none;fill-rule:nonzero;fill:url(#radial0);" d="M 11.90625 14.015625 L 13.230469 14.015625 L 13.230469 13.355469 L 11.90625 13.355469 Z M 11.90625 14.015625 "/>
<path style=" stroke:none;fill-rule:nonzero;fill:url(#radial1);" d="M 3.96875 14.015625 L 2.644531 14.015625 L 2.644531 14.679688 L 3.96875 14.679688 Z M 3.96875 14.015625 "/>
<path style=" stroke:none;fill-rule:nonzero;fill:url(#radial2);" d="M 3.96875 14.015625 L 2.644531 14.015625 L 2.644531 13.355469 L 3.96875 13.355469 Z M 3.96875 14.015625 "/>
<path style=" stroke:none;fill-rule:nonzero;fill:url(#radial3);" d="M 11.90625 14.015625 L 13.230469 14.015625 L 13.230469 14.679688 L 11.90625 14.679688 Z M 11.90625 14.015625 "/>
<path style=" stroke:none;fill-rule:nonzero;fill:url(#linear1);" d="M 3.308594 1.449219 L 12.570312 1.449219 C 12.933594 1.449219 13.230469 1.746094 13.230469 2.109375 L 13.230469 13.355469 C 13.230469 13.722656 12.933594 14.015625 12.570312 14.015625 L 3.308594 14.015625 C 2.941406 14.015625 2.644531 13.722656 2.644531 13.355469 L 2.644531 2.109375 C 2.644531 1.746094 2.941406 1.449219 3.308594 1.449219 Z M 3.308594 1.449219 "/>
<path style="fill-rule:nonzero;fill:url(#linear2);stroke-width:11.338583;stroke-linecap:round;stroke-linejoin:miter;stroke:rgb(12.941177%,12.941177%,12.941177%);stroke-opacity:1;stroke-miterlimit:4;" d="M 400.119292 175.258863 C 355.714081 175.258863 319.811996 210.688553 319.811996 255.093763 L 319.811996 1615.121439 C 319.811996 1659.52665 355.714081 1694.956339 400.119292 1694.956339 L 520.10784 1694.956339 L 520.10784 175.258863 Z M 400.119292 175.258863 " transform="matrix(0.00826902,0,0,0.00826902,0,0)"/>
<path style=" stroke:none;fill-rule:nonzero;fill:rgb(0%,0%,0%);fill-opacity:0.196078;" d="M 3.308594 14.015625 C 2.941406 14.015625 2.644531 13.722656 2.644531 13.355469 L 2.644531 13.273438 C 2.644531 13.640625 2.941406 13.933594 3.308594 13.933594 L 12.570312 13.933594 C 12.933594 13.933594 13.230469 13.640625 13.230469 13.273438 L 13.230469 13.355469 C 13.230469 13.722656 12.933594 14.015625 12.570312 14.015625 Z M 3.308594 14.015625 "/>
<path style=" stroke:none;fill-rule:nonzero;fill:rgb(90.196079%,90.196079%,90.196079%);fill-opacity:0.937239;" d="M 3.308594 1.449219 C 2.941406 1.449219 2.644531 1.742188 2.644531 2.109375 L 2.644531 2.191406 C 2.644531 1.824219 2.941406 1.53125 3.308594 1.53125 L 12.570312 1.53125 C 12.933594 1.53125 13.230469 1.824219 13.230469 2.191406 L 13.230469 2.109375 C 13.230469 1.742188 12.933594 1.449219 12.570312 1.449219 Z M 3.308594 1.449219 "/>
<path style=" stroke:none;fill-rule:nonzero;fill:rgb(12.941177%,12.941177%,12.941177%);fill-opacity:1;" d="M 3.308594 1.402344 C 2.914062 1.402344 2.597656 1.71875 2.597656 2.109375 L 2.597656 13.355469 C 2.597656 13.746094 2.914062 14.0625 3.308594 14.0625 L 12.570312 14.0625 C 12.960938 14.0625 13.277344 13.746094 13.277344 13.355469 L 13.277344 2.109375 C 13.277344 1.71875 12.960938 1.402344 12.570312 1.402344 Z M 3.308594 1.496094 L 12.570312 1.496094 C 12.910156 1.496094 13.183594 1.769531 13.183594 2.109375 L 13.183594 13.355469 C 13.183594 13.695312 12.910156 13.96875 12.570312 13.96875 L 3.308594 13.96875 C 2.964844 13.96875 2.691406 13.695312 2.691406 13.355469 L 2.691406 2.109375 C 2.691406 1.769531 2.964844 1.496094 3.308594 1.496094 Z M 3.308594 1.496094 "/>
<path style=" stroke:none;fill-rule:nonzero;fill:rgb(93.333334%,93.333334%,93.333334%);fill-opacity:0.995816;" d="M 6.285156 5.417969 L 6.285156 10.378906 L 9.921875 10.378906 C 10.289062 10.378906 10.585938 10.082031 10.585938 9.71875 L 10.585938 6.078125 C 10.585938 5.710938 10.289062 5.417969 9.921875 5.417969 Z M 7.113281 6.242188 L 9.425781 6.242188 C 9.609375 6.242188 9.757812 6.390625 9.757812 6.574219 L 9.757812 9.183594 C 9.757812 9.367188 9.609375 9.515625 9.425781 9.515625 L 7.113281 9.515625 Z M 7.113281 6.242188 "/>
<path style=" stroke:none;fill-rule:nonzero;fill:rgb(100%,100%,100%);fill-opacity:0.916129;" d="M 6.285156 5.417969 L 6.285156 5.542969 L 9.921875 5.542969 C 10.289062 5.542969 10.585938 5.835938 10.585938 6.203125 L 10.585938 6.078125 C 10.585938 5.710938 10.289062 5.417969 9.921875 5.417969 Z M 9.757812 9.183594 C 9.757812 9.367188 9.609375 9.515625 9.425781 9.515625 L 7.113281 9.515625 L 7.113281 9.640625 L 9.425781 9.640625 C 9.609375 9.640625 9.757812 9.492188 9.757812 9.308594 Z M 9.757812 9.183594 "/>
<path style=" stroke:none;fill-rule:nonzero;fill:rgb(0%,0%,0%);fill-opacity:0.235294;" d="M 7.113281 6.238281 L 7.113281 6.503906 L 9.425781 6.503906 C 9.609375 6.503906 9.757812 6.648438 9.757812 6.832031 L 9.757812 6.570312 C 9.757812 6.386719 9.609375 6.238281 9.425781 6.238281 Z M 10.585938 9.710938 C 10.585938 10.078125 10.289062 10.375 9.921875 10.375 L 6.285156 10.375 L 6.285156 10.636719 L 9.921875 10.636719 C 10.289062 10.636719 10.585938 10.34375 10.585938 9.976562 Z M 10.585938 9.710938 "/>
<path style="fill:none;stroke-width:11.338583;stroke-linecap:square;stroke-linejoin:bevel;stroke:rgb(12.941177%,12.941177%,12.941177%);stroke-opacity:1;stroke-miterlimit:4;" d="M 760.084936 655.213055 L 760.084936 1255.155795 L 1199.88548 1255.155795 C 1244.29069 1255.155795 1280.192776 1219.25371 1280.192776 1175.320895 L 1280.192776 735.047955 C 1280.192776 690.642745 1244.29069 655.213055 1199.88548 655.213055 Z M 860.232858 754.888581 L 1139.891206 754.888581 C 1162.093811 754.888581 1180.044854 772.839624 1180.044854 795.042229 L 1180.044854 1110.602663 C 1180.044854 1132.805268 1162.093811 1150.75631 1139.891206 1150.75631 L 860.232858 1150.75631 Z M 860.232858 754.888581 " transform="matrix(0.00826902,0,0,0.00826902,0,0)"/>
<path style="fill:none;stroke-width:8;stroke-linecap:round;stroke-linejoin:round;stroke:url(#linear3);stroke-dasharray:16,16;stroke-dashoffset:7.200001;stroke-miterlimit:4;" d="M 148.110856 -147.506445 L 148.110856 212.334192 L 391.587605 212.334192 C 397.462044 212.334192 402.211591 207.584645 402.211591 201.710206 L 402.211591 -136.88246 C 402.211591 -142.756899 397.462044 -147.506445 391.587605 -147.506445 Z M 148.110856 -147.506445 " transform="matrix(0.031253,0,0,0.031253,0,6.719392)"/>
<path style=" stroke:none;fill-rule:nonzero;fill:url(#linear4);" d="M 2.644531 4.589844 L 4.300781 4.589844 L 4.300781 5.25 L 2.644531 5.25 Z M 2.644531 4.589844 "/>
<path style=" stroke:none;fill-rule:nonzero;fill:rgb(0%,0%,0%);fill-opacity:0.235294;" d="M 2.644531 5.25 L 2.644531 5.5 L 4.300781 5.5 L 4.300781 5.25 Z M 2.644531 5.25 "/>
<path style=" stroke:none;fill-rule:nonzero;fill:rgb(100%,100%,100%);fill-opacity:0.392157;" d="M 2.644531 4.589844 L 2.644531 4.753906 L 4.300781 4.753906 L 4.300781 4.589844 Z M 2.644531 4.589844 "/>
<path style="fill:none;stroke-width:3;stroke-linecap:round;stroke-linejoin:round;stroke:rgb(12.941177%,12.941177%,12.941177%);stroke-opacity:1;stroke-miterlimit:4;" d="M 84.61692 -20.514265 L 137.611859 -20.514265 L 137.611859 0.608718 L 84.61692 0.608718 Z M 84.61692 -20.514265 " transform="matrix(0.031253,0,0,0.031253,-0.0000000104177,5.230976)"/>
<path style=" stroke:none;fill-rule:nonzero;fill:url(#linear5);" d="M 2.644531 10.046875 L 4.300781 10.046875 L 4.300781 10.710938 L 2.644531 10.710938 Z M 2.644531 10.046875 "/>
<path style=" stroke:none;fill-rule:nonzero;fill:rgb(0%,0%,0%);fill-opacity:0.235294;" d="M 2.644531 10.710938 L 2.644531 10.957031 L 4.300781 10.957031 L 4.300781 10.710938 Z M 2.644531 10.710938 "/>
<path style=" stroke:none;fill-rule:nonzero;fill:rgb(100%,100%,100%);fill-opacity:0.392157;" d="M 2.644531 10.046875 L 2.644531 10.214844 L 4.300781 10.214844 L 4.300781 10.046875 Z M 2.644531 10.046875 "/>
<path style="fill:none;stroke-width:3;stroke-linecap:round;stroke-linejoin:round;stroke:rgb(12.941177%,12.941177%,12.941177%);stroke-opacity:1;stroke-miterlimit:4;" d="M 84.61692 -20.530958 L 137.611859 -20.530958 L 137.611859 0.717013 L 84.61692 0.717013 Z M 84.61692 -20.530958 " transform="matrix(0.031253,0,0,0.031253,-0.0000000104177,10.688529)"/>
</g>
</svg>
